X:121
T:Sweet Richard
M:C
L:1/8
B:Thompson's Compleat Collection of 200 Favourite Country Dances, vol. 3 (London, 1773)
Z:Transcribed and edited by Flynn Titford-Mock, 2007
Z:abc's:AK/Fiddler's Companion
K:G
D(G G)F/E/ F(B B)A/G/ AB c2 | B>cdB cABG | EAGF G[DB][B,d][G,g] :|
|: gggg ffff | eeee dd d2 | gggg ffff | eeee d2d2 |
ec e2 dB d2 | cBAG Bc d2 | BcdB cABG | EAGF G[DG][B,d][G,g] :|

